X:45
T:Con On The Lam
C:Jeff Vogelgesang
N:Tramscribed by Mike Stangeland
L:1/8
Q:1/4=197
M:4/4
K:C
z8 |: "Gmaj7"dc BA "G#dim"^GB df | "Am7"ec BA "A#dim"_B^c eg | "Bm7"^fd BA "E7"^GB d=f | 
"Am7"ec AG "D7"^FA c^d | "Gmaj7"dc BA "G#dim"^GB df |1 e"Am7"c BA _B"A#dim"^c eg | 
"Am7"^fd BG "D7"D2 ^FG | z"Gmaj6"D2D D2 D2 :|2 e"Am7"c BA _B"A#dim"^c e^f | "Am7"gd e_B "D7"=BG E2 | 
"Gmaj6"GD ^CD GA _Bc |] (3"Gm"ddd (3ddd (3ddd (3ddd | d2 d(3d2 (3d2^d2 =d2 | "F"c2 (3AcA {E}(3FFF (3FFF | 
F2 c(3c2 (3c2d2 c2 | "Eb"_B2 G2 (3^DDD (3DDD | ^D2 _BB Bc Bc | (3A"D"_BA GA Bc Bc | 
_Bc Bc (3ddd (3ddd | "Gm"(3ddd (3ddd (3ddd (3ddd | d2 d(3d2 (3d2^d2 =d2 | "F"cc (3AcA {E}(3FFF (3FFF | 
F2 c(3c2 (3c2d2 c2 | "Eb"_B(3B2 G2 (3^DDD (3DDD | ^D2 _B(3B2 (3B2c2 B2 | (3A"D"_BA GA Bc Bc | 
A2 {G}A2 A4 | "Gmaj7"dc BA "G#dim"^GB df | "Am7"ec BA "A#dim"_B^c eg | "Bm7"^fd BA "E7"^GB d=f | 
"Am7"ec AG "D7"^FA c^d | "Gmaj7"dc BA "G#dim"^GB df | e"Am7"c BA _B"A#dim"^c e^f | 
"Am7"ga b2 ^fd fa | g8 | 


